X:94
T: IST ALLES DUNKEL
N: E0698B
O: Europa, Mitteleuropa, Deutschland, Oderberg, Hohen Saathen
R: Liebes - Lied, Leid, Klage
M: 3/4
L: 1/8
K: Bb
FDE | GFFFDF | Bdd
dcB | c2eecA | B2z
ddB | c2eecA | Bdf
fdB | c2eecA | B2z
ddB | c2eecA | Bdf
fdB | c2eecA | B2z

